modules/feathericon/icons/youtube.svg

<?xml version="1.0" encoding="UTF-8"?>
<svg width="24px" height="24px" viewBox="0 0 24 24" version="1.1" xmlns="http://www.w3.org/2000/svg" xmlns:xlink="http://www.w3.org/1999/xlink">
    <!-- Generator: sketchtool 52.2 (67145) - http://www.bohemiancoding.com/sketch -->
    <title>youtube</title>
    <desc>Created with sketchtool.</desc>
    <g id="brand" stroke="none" stroke-width="1" fill="none" fill-rule="evenodd">
        <g id="youtube" fill="#000000">
            <path d="M9.9352371,14.6275781 L9.93431684,9.00811005 L15.3384046,11.8276341 L9.9352371,14.6275781 Z M21.8002837,8.03461064 C21.8002837,8.03461064 21.6048359,6.65639205 21.0051975,6.04946992 C20.2446701,5.25287606 19.3921948,5.24894048 19.00126,5.20230085 C16.2025495,5 12.004337,5 12.004337,5 L11.9956434,5 C11.9956434,5 7.7975288,5 4.99872045,5.20230085 C4.60776603,5.24894048 3.75560405,5.25287606 2.99480248,6.04946992 C2.39514454,6.65639205 2.20000999,8.03461064 2.20000999,8.03461064 C2.20000999,8.03461064 2,9.65307617 2,11.2715613 L2,12.7888764 C2,14.4073223 2.20000999,16.0257879 2.20000999,16.0257879 C2.20000999,16.0257879 2.39514454,17.404026 2.99480248,18.0109482 C3.75560405,18.8075225 4.75496868,18.7823425 5.20008145,18.8658318 C6.8001026,19.0192609 12.0000098,19.0667424 12.0000098,19.0667424 C12.0000098,19.0667424 16.2025495,19.0604181 19.00126,18.8580977 C19.3921948,18.8114776 20.2446701,18.8075225 21.0051975,18.0109482 C21.6048359,17.404026 21.8002837,16.0257879 21.8002837,16.0257879 C21.8002837,16.0257879 22,14.4073223 22,12.7888764 L22,11.2715613 C22,9.65307617 21.8002837,8.03461064 21.8002837,8.03461064 L21.8002837,8.03461064 Z" id="Shape"></path>
        </g>
    </g>
</svg>

<svg width="24" height="24" viewBox="0 0 24 24" xmlns="http://www.w3.org/2000/svg"><path d="M9.935 14.628v-5.62l5.403 2.82-5.403 2.8zM21.8 8.035s-.195-1.379-.795-1.986c-.76-.796-1.613-.8-2.004-.847C16.203 5 12.004 5 12.004 5h-.008s-4.198 0-6.997.202c-.391.047-1.243.05-2.004.847-.6.607-.795 1.986-.795 1.986S2 9.653 2 11.272v1.517c0 1.618.2 3.237.2 3.237s.195 1.378.795 1.985c.76.797 1.76.771 2.205.855 1.6.153 6.8.2 6.8.2s4.203-.006 7.001-.208c.391-.047 1.244-.05 2.004-.847.6-.607.795-1.985.795-1.985s.2-1.619.2-3.237v-1.517c0-1.619-.2-3.237-.2-3.237z" fill="#000" fill-rule="evenodd"/></svg>
